X:46
T: Es spielten einst drei Brder (Band 1), S. 141
N: P0820
O: Lothringen
S: PINCK, Louis: Verklingende Weisen, Bd 1, Metz 1928]
R: Soldatenlied]
M: 4/4
L: 1/8
K: F
c2 | c3cc2c2 | A4A2
c2 | d2c2BBA2 | G2z4
B2 | A2c2GBAG | F3CF2
Ac | c4c4 | A2z4

@@@ Tune index: 7596
